X:186
T:Josie McDermott's
R:reel
Z:transcribed by Dave Marshall
M:C|
K:G
|: DGGD FGAc | B~G3 ABBA | d3A BGGB | AdcA GFEF |
DGGD FGAc | B~G3 ABBA | d3A BGGB |1 AdcA G3E :|2 AdcA GABd |
|: g3e f~d3 | fdge f~d3 | g3e fdd^c | defd g3f |
g3e fdcA | B~G3 ABBA | d3A BGGB | AdcA G4 :|
